Numix-Light-GalliumOS/16/status/dropboxstatus-busy.svg

<?xml version="1.0" encoding="UTF-8" standalone="no"?>
<svg
   xmlns:dc="http://purl.org/dc/elements/1.1/"
   xmlns:cc="http://creativecommons.org/ns#"
   xmlns:rdf="http://www.w3.org/1999/02/22-rdf-syntax-ns#"
   xmlns:svg="http://www.w3.org/2000/svg"
   xmlns="http://www.w3.org/2000/svg"
   xmlns:sodipodi="http://sodipodi.sourceforge.net/DTD/sodipodi-0.dtd"
   xmlns:inkscape="http://www.inkscape.org/namespaces/inkscape"
   width="16"
   height="16"
   viewBox="0 0 16 16"
   id="svg2991"
   version="1.1"
   inkscape:version="0.91 r"
   sodipodi:docname="dropboxstatus-busy.svg">
  <metadata
     id="metadata3003">
    <rdf:RDF>
      <cc:Work
         rdf:about="">
        <dc:format>image/svg+xml</dc:format>
        <dc:type
           rdf:resource="http://purl.org/dc/dcmitype/StillImage" />
      </cc:Work>
    </rdf:RDF>
  </metadata>
  <defs
     id="defs3001" />
  <sodipodi:namedview
     pagecolor="#ffffff"
     bordercolor="#666666"
     borderopacity="1"
     objecttolerance="10"
     gridtolerance="10"
     guidetolerance="10"
     inkscape:pageopacity="0"
     inkscape:pageshadow="2"
     inkscape:window-width="1280"
     inkscape:window-height="998"
     id="namedview2999"
     showgrid="false"
     inkscape:zoom="14.75"
     inkscape:cx="8"
     inkscape:cy="8"
     inkscape:window-x="0"
     inkscape:window-y="0"
     inkscape:window-maximized="1"
     inkscape:current-layer="svg2991" />
  <path
     style="fill:#353535;fill-opacity:1"
     inkscape:connector-curvature="0"
     id="path2997"
     d="M 4.726562,2.546875 1.453125,5.089844 4.726562,7.273438 1.453125,10.183594 8,14.546875 14.546875,10.183594 11.273438,7.273438 14.546875,5.089844 11.273438,2.546875 8,5.089844 z M 6.410156,5.816406 8.5,6.363281 7.386719,8.226562 7.089844,7.5 C 6.3125,7.847656 5.816406,8.605469 5.816406,9.453125 c 0,0.882813 0.554688,1.683594 1.386719,2 l -0.386719,1 c -1.25,-0.472656 -2.089844,-1.679687 -2.089844,-3 0,-1.289063 0.78125,-2.441406 1.976563,-2.953125 z m 2.792969,0.636719 c 1.253906,0.492187 2.070313,1.675781 2.070313,3 0,1.28125 -0.785157,2.453125 -1.976563,2.957031 l 0.25,0.679688 -2,-0.566406 1.066406,-1.839844 0.273438,0.726562 c 0.773437,-0.34375 1.296875,-1.113281 1.296875,-1.957031 0,-0.882813 -0.53125,-1.671875 -1.367188,-2 z" />
</svg>

<svg xmlns="http://www.w3.org/2000/svg" viewBox="0 0 16 16">
 <path d="m 4.727 2.547 -3.273 2.543 3.273 2.184 -3.273 2.91 6.547 4.363 6.547 -4.363 -3.273 -2.91 3.273 -2.184 -3.273 -2.543 -3.273 2.543 z m 1.684 3.27 2.09 0.547 -1.113 1.863 -0.297 -0.727 c -0.777 0.348 -1.273 1.105 -1.273 1.953 c 0 0.883 0.555 1.684 1.387 2 l -0.387 1 c -1.25 -0.473 -2.09 -1.68 -2.09 -3 0 -1.289 0.781 -2.441 1.977 -2.953 z m 2.793 0.637 c 1.254 0.492 2.07 1.676 2.07 3 0 1.281 -0.785 2.453 -1.977 2.957 l 0.25 0.68 -2 -0.566 1.066 -1.84 0.273 0.727 c 0.773 -0.344 1.297 -1.113 1.297 -1.957 0 -0.883 -0.531 -1.672 -1.367 -2 z" style="fill:#353535;fill-opacity:1"/>
</svg>
